X: 4303
M: C|
L: 1/8
K: F
(cB) |\
[1 dfed cAfe | dcBA G2 :|\
[2 dbag fede | g2f2 f2 |:\
(gf) |\
eceg b2(ag) |
fcfa c'2(ba) |\
g^fga bag=f | e2c2 c2(cB) |\
dbag fede | g2f2 f2 :|


